X:61
T:Black-Heath
C:Henry Playford, 1701
S:Colin Hume's website,  colinhume.com  - chords can also be printed below the stave.
Q:1/2=110
M:2/2
L:1/4
K:Gm
P:A
|: G | "Gm"Bd dg | "D7"d/c/d/e/ dG | "Gm"Bd dg | "D"a/g/a/b/ ad |\
"Eb"ga "Bb/D"bf | "Cm"g/f/e/d/ "F"cf | "Bb"dB "F"cA | "Bb"B3 :|
P:B
|| z | "D"dA "D7"Ad/c/ | "G"=B/c/ =B/A/ Gd | "G"gd "G7"dg/f/ | "C"=e/f/=e/d/ "C7"c=e |\
"F"f2 "C/E"g2 | "Dm"a/g/a/b/ ag/f/ | "C"=ef "C7"g=e | "F"f2- "F7"f f |
"Bb"bd de/f/ | "Cm"g/f/e/d/ "F7"cd/e/ | "Bb"fB "Gm"Bc/d/ | "Cm"e/d/c/B/ "F"AB/c/ |\
"Bb"d2 "C"=e2 | "D7"^fd "Gm"ga/b/ | "Cm"ag "D7"a^f | "Gm"g3 |]

